_includes/icons/color-coins.svg

<svg fill="#666" height="50" viewBox="0 0 48 48" width="50" xmlns="http://www.w3.org/2000/svg"><path d="m20 9v28s1 3 11 3 11-3 11-3v-28z" fill="#ffc107"/><path d="m42 7c0-1.65625-4.925781-3-11-3s-11 1.34375-11 3 4.925781 3 11 3 11-1.34375 11-3z" fill="#ffc107"/><path d="m20 13s1 3 11 3 11-3 11-3v3s-1 3-11 3-11-3-11-3zm0 9s1 3 11 3 11-3 11-3v-3s-1 3-11 3-11-3-11-3zm0 6s1 3 11 3 11-3 11-3v-3s-1 3-11 3-11-3-11-3zm0 6s1 3 11 3 11-3 11-3v-3s-1 3-11 3-11-3-11-3zm0-24s1 3 11 3 11-3 11-3v-3s-1 3-11 3-11-3-11-3z" fill="#ff9800"/><path d="m28 31.898438v7.992187c.902344.066406 1.886719.109375 3 .109375.351563 0 .671875-.011719 1-.019531v-8.082031c0-5.152344-6.605469-6.148438-11.941406-6.78125l-.058594 3.898437c4.613281.355469 8 1.511719 8 2.882813z" fill="#f57c00"/><path d="m31 31c.324219 0 .621094-.011719.925781-.019531-.21875-1.269531-.898437-2.238281-1.867187-3-7.992188-.164063-9.707031-2.335938-10-2.863281l-.027344 1.898437c4.597656.359375 7.96875 1.511719 7.96875 2.882813v.992187c.902344.066406 1.886719.109375 3 .109375z" fill="#d66805"/><path d="m28 33.890625v3c.902344.066406 1.886719.109375 3 .109375.351563 0 .671875-.011719 1-.019531v-3c-.328125.007812-.648437.019531-1 .019531-1.113281 0-2.097656-.042969-3-.109375z" fill="#d66805"/><g fill="#cfd8dc"><path d="m6 29h22v9h-22z"/><path d="m6 36s1 3 11 3 11-3 11-3v4s-1 3-11 3-11-3-11-3z"/><path d="m28 28c0-1.65625-4.925781-3-11-3s-11 1.34375-11 3 4.925781 3 11 3 11-1.34375 11-3z"/></g><g fill="#90a4ae"><path d="m6 28s1 3 11 3 11-3 11-3v3s-1 3-11 3-11-3-11-3z"/><path d="m6 34s1 3 11 3 11-3 11-3v3s-1 3-11 3-11-3-11-3z"/></g></svg>

<svg xmlns="http://www.w3.org/2000/svg" viewBox="0 0 48 48" width="50" height="50" fill="#666"><path d="M 20 9 L 20 37 C 20 37 21 40 31 40 C 41 40 42 37 42 37 L 42 9 Z" fill="#ffc107"/><path d="M 42 7 C 42 5.34375 37.074219 4 31 4 C 24.925781 4 20 5.34375 20 7 C 20 8.65625 24.925781 10 31 10 C 37.074219 10 42 8.65625 42 7 Z" fill="#ffc107"/><path d="M 20 13 C 20 13 21 16 31 16 C 41 16 42 13 42 13 L 42 16 C 42 16 41 19 31 19 C 21 19 20 16 20 16 Z M 20 22 C 20 22 21 25 31 25 C 41 25 42 22 42 22 L 42 19 C 42 19 41 22 31 22 C 21 22 20 19 20 19 Z M 20 28 C 20 28 21 31 31 31 C 41 31 42 28 42 28 L 42 25 C 42 25 41 28 31 28 C 21 28 20 25 20 25 Z M 20 34 C 20 34 21 37 31 37 C 41 37 42 34 42 34 L 42 31 C 42 31 41 34 31 34 C 21 34 20 31 20 31 Z M 20 10 C 20 10 21 13 31 13 C 41 13 42 10 42 10 L 42 7 C 42 7 41 10 31 10 C 21 10 20 7 20 7 Z" fill="#ff9800"/><path d="M 28 31.898438 L 28 39.890625 C 28.902344 39.957031 29.886719 40 31 40 C 31.351563 40 31.671875 39.988281 32 39.980469 L 32 31.898438 C 32 26.746094 25.394531 25.75 20.058594 25.117188 L 20 29.015625 C 24.613281 29.371094 28 30.527344 28 31.898438 Z" fill="#f57c00"/><path d="M 31 31 C 31.324219 31 31.621094 30.988281 31.925781 30.980469 C 31.707031 29.710938 31.027344 28.742188 30.058594 27.980469 C 22.066406 27.816406 20.351563 25.644531 20.058594 25.117188 L 20.03125 27.015625 C 24.628906 27.375 28 28.527344 28 29.898438 L 28 30.890625 C 28.902344 30.957031 29.886719 31 31 31 Z" fill="#d66805"/><path d="M 28 33.890625 L 28 36.890625 C 28.902344 36.957031 29.886719 37 31 37 C 31.351563 37 31.671875 36.988281 32 36.980469 L 32 33.980469 C 31.671875 33.988281 31.351563 34 31 34 C 29.886719 34 28.902344 33.957031 28 33.890625 Z" fill="#d66805"/><path d="M 6 29 L 28 29 L 28 38 L 6 38 Z" fill="#cfd8dc"/><path d="M 6 36 C 6 36 7 39 17 39 C 27 39 28 36 28 36 L 28 40 C 28 40 27 43 17 43 C 7 43 6 40 6 40 Z" fill="#cfd8dc"/><path d="M 28 28 C 28 26.34375 23.074219 25 17 25 C 10.925781 25 6 26.34375 6 28 C 6 29.65625 10.925781 31 17 31 C 23.074219 31 28 29.65625 28 28 Z" fill="#cfd8dc"/><path d="M 6 28 C 6 28 7 31 17 31 C 27 31 28 28 28 28 L 28 31 C 28 31 27 34 17 34 C 7 34 6 31 6 31 Z" fill="#90a4ae"/><path d="M 6 34 C 6 34 7 37 17 37 C 27 37 28 34 28 34 L 28 37 C 28 37 27 40 17 40 C 7 40 6 37 6 37 Z" fill="#90a4ae"/></svg>
